/* XPM */
static char * font_xpm[] = {
"384 144 184 2",
"  	c #000000",
". 	c #8C8C8C",
"+ 	c #B9B9B9",
"@ 	c #989898",
"# 	c #979797",
"$ 	c #B6B6B6",
"% 	c #F0F0F0",
"& 	c #161616",
"* 	c #D1D1D1",
"= 	c #FDFDFD",
"- 	c #6A6A6A",
"; 	c #696969",
"> 	c #FCFCFC",
", 	c #D0D0D0",
"' 	c #CFCFCF",
") 	c #868686",
"! 	c #969696",
"~ 	c #C5C5C5",
"{ 	c #8E8E8E",
"] 	c #C0C0C0",
"^ 	c #C3C3C3",
"/ 	c #FEFEFE",
"( 	c #929292",
"_ 	c #919191",
": 	c #CECECE",
"< 	c #A5A5A5",
"[ 	c #FFFFFF",
"} 	c #8A8A8A",
"| 	c #DCDCDC",
"1 	c #D5D5D5",
"2 	c #BCBCBC",
"3 	c #B1B1B1",
"4 	c #AEAEAE",
"5 	c #BEBEBE",
"6 	c #D7D7D7",
"7 	c #ABABAB",
"8 	c #DADADA",
"9 	c #A9A9A9",
"0 	c #717171",
"a 	c #C2C2C2",
"b 	c #EDEDED",
"c 	c #FBFBFB",
"d 	c #686868",
"e 	c #E2E2E2",
"f 	c #737373",
"g 	c #AFAFAF",
"h 	c #A0A0A0",
"i 	c #D4D4D4",
"j 	c #9D9D9D",
"k 	c #F6F6F6",
"l 	c #ADADAD",
"m 	c #B4B4B4",
"n 	c #ECECEC",
"o 	c #DEDEDE",
"p 	c #F3F3F3",
"q 	c #A6A6A6",
"r 	c #A3A3A3",
"s 	c #A8A8A8",
"t 	c #FAFAFA",
"u 	c #E7E7E7",
"v 	c #F8F8F8",
"w 	c #E8E8E8",
"x 	c #494949",
"y 	c #E0E0E0",
"z 	c #9B9B9B",
"A 	c #949494",
"B 	c #A4A4A4",
"C 	c #F5F5F5",
"D 	c #636363",
"E 	c #D8D8D8",
"F 	c #9F9F9F",
"G 	c #909090",
"H 	c #F1F1F1",
"I 	c #EAEAEA",
"J 	c #9A9A9A",
"K 	c #606060",
"L 	c #666666",
"M 	c #BDBDBD",
"N 	c #5A5A5A",
"O 	c #A7A7A7",
"P 	c #707070",
"Q 	c #535353",
"R 	c #F4F4F4",
"S 	c #C9C9C9",
"T 	c #E1E1E1",
"U 	c #EFEFEF",
"V 	c #222222",
"W 	c #848484",
"X 	c #3B3B3B",
"Y 	c #E9E9E9",
"Z 	c #808080",
"` 	c #787878",
" .	c #B2B2B2",
"..	c #B3B3B3",
"+.	c #E6E6E6",
"@.	c #EEEEEE",
"#.	c #8B8B8B",
"$.	c #CDCDCD",
"%.	c #D2D2D2",
"&.	c #CCCCCC",
"*.	c #DFDFDF",
"=.	c #818181",
"-.	c #D6D6D6",
";.	c #EBEBEB",
">.	c #E5E5E5",
",.	c #E4E4E4",
"'.	c #515151",
").	c #454545",
"!.	c #B5B5B5",
"~.	c #DBDBDB",
"{.	c #838383",
"].	c #3D3D3D",
"^.	c #4D4D4D",
"/.	c #E3E3E3",
"(.	c #585858",
"_.	c #777777",
":.	c #F7F7F7",
"<.	c #C6C6C6",
"[.	c #2A2A2A",
"}.	c #B0B0B0",
"|.	c #A2A2A2",
"1.	c #C8C8C8",
"2.	c #C7C7C7",
"3.	c #B8B8B8",
"4.	c #878787",
"5.	c #898989",
"6.	c #5F5F5F",
"7.	c #9C9C9C",
"8.	c #B6B6B5",
"9.	c #9E9E9E",
"0.	c #E5E5E4",
"a.	c #CBCBCB",
"b.	c #AAAAAA",
"c.	c #939393",
"d.	c #DDDDDD",
"e.	c #323232",
"f.	c #7C7C7C",
"g.	c #8F8F8F",
"h.	c #F9F9F9",
"i.	c #CACACA",
"j.	c #626262",
"k.	c #C4C4C4",
"l.	c #7D7D7D",
"m.	c #7A7A7A",
"n.	c #424242",
"o.	c #828282",
"p.	c #999999",
"q.	c #B7B7B7",
"r.	c #6C6C6C",
"s.	c #6E6E6E",
"t.	c #7F7F7F",
"u.	c #4B4B4B",
"v.	c #D2D1D2",
"w.	c #F2F2F2",
"x.	c #555555",
"y.	c #858585",
"z.	c #797979",
"A.	c #A1A1A1",
"B.	c #353535",
"C.	c #5C5C5C",
"D.	c #BBBBBB",
"E.	c #BFBFBF",
"F.	c #D9D9D9",
"G.	c #D3D3D3",
"H.	c #767676",
"I.	c #BABABA",
"J.	c #727272",
"K.	c #ACACAC",
"L.	c #C1C1C1",
"M.	c #9D9C9D",
"N.	c #FEFFFF",
"O.	c #FAFBFB",
"P.	c #D1D0D1",
"Q.	c #E6E6E5",
"R.	c #8D8D8D",
"S.	c #979898",
"T.	c #D4D5D5",
"U.	c #ADAEAE",
"V.	c #E0E0DF",
"W.	c #FFFFFE",
"X.	c #FDFEFE",
"Y.	c #C3C3C2",
"Z.	c #D6D7D7",
"`.	c #222122",
"                                                                                                                                                                                                                                                                                                                                                                                                                                                                                                                                                                                                                                                                                                                                                                                                ",
"                                                                                                                                                                                                                                                                                                                                                                                                                                                                                                                                                                                                                                                                                                                                                                                                ",
"                                                                                                                                                                                                                      . +                                                                                                                                                                                                 @                                         #                                                                                                                                                                                                                                                                                                                           ",
"                                                                                                                                                                                                                      $ %                                                                                                                                                                                             & * = -                                     ; > ,                                                                                                                                                                                                                                                                                                     & ' )               ",
"                                                                                                                  ! ~ { . ~ @                                                                                         $ %                                                                                                                                             ] ^                                             * / (                                         _ / :                                                                                                                                                                                                                                                                                                   < [ }               ",
"                                                                      | 1                                         2 [ 3 4 [ 5                                       6 7     8 9                                   0 a b c * < &                               d : e , f       ' g                                 h i e 1 j                                           k k                                           $ [ l                                             l [ m                                                                                                                                                                                                                                                                                               & n o                 ",
"                                                                      p n                                         3 [ q r [ m                                       > 7   & / s                                 0 t k u v u [ w x                             y % 3 b u     z [ A                               ! [ y B 5 C g                                         % %                                         D > E                                                 E > D                                                                                                                                                                                                                                                                                             F [ G                 ",
"                                                                      H I                                         < [ J ! [ s                                     K [ {   ; [ }                                 ' = L $ %   # M                             N / O   # [ P Q R S                                 T U V     W X                                         Y Y                                         5 [ Z                                                 ` [ 5                                          ...                                                                                                                                                                                                                                                +.+.                  ",
"                                                                      @.u                                         @ [ #.) [ z                                   + * [ $.~ %.[ &.z                               *.t   $ %                                   d [ r   ! [ =.-.@.X                                 ;.e                                                   e e                                         w I                                                     I w                                         >.+.                                            ,.y                                                                                                                                                                                               @ [ @                   ",
"                                                                      b >.                                        '.@ x ).@ Q                                   6 % = +.+.% > +.!.                              ] [ q $ %                                     ;.e 0 ~.U h > =.                                  a = .                                                 {.{.                                      ]./ :                                                     : / ].                              ^.^.    y e     ^.^.                                    ,.y                                                                                                                                                                                               +.Y                     ",
"                                                                      I /.                                                                                        ] @.    a n                                   ].+.[ k R (.                                  _.C [ :.J :.M                                     V <.C w +.+.+.+.+.[.                                                                            _.[ 2                                                     2 [ _.                              }.c ~.r o *.|.8 c  .                                    ,.y                                                                                                                                                                                             @ [ <                     ",
"                                                                      u T                                                                                         i *.    -.|                                     V 4 ;.[ / 1.X                                       o w &                                     Z E p ' ~ 2.[ o ~ V                                                                             } [ 3.                                                    $ [ }                               4.: % [ [ [ [ % $.5.                            6.@ @ @ ;.Y @ @ @ K                                                                               7.$ $ 8.$ $ $ 9.                                                                                      +.;.&                     ",
"                                                                      0.*.                                                                                        >.:     u a.                                        $ R E [ 8                                     b.t c.' T ' -                             - c d.[.    e.[ 3                                                                                 f.[ 5                                                     5 [ f.                                     .[ [  .                                  |.[ [ [ [ [ [ [ [ <                                                                               1 :.:.:.:.:.:.6                                                                                     G [ <                       ",
"                                                                      a.<.                                                                                    _.@ k , @ @ k ' g.                                      $ %   , [ {.                                L h.4 +.@. .U ,.                            m [ `       e.[ 3                                                                                 '.[ a.                                                    &.[ '.                                  ; :.;.;.:.d                                         ,.y                                                                                                                                                                                           o % &                       ",
"                                                                                                                                                              i.[ [ [ [ [ [ [ H                                       $ %   l [ O                                 y | d [ F   r [ j.                          k.[ [.      e.[ 3                                                                                   U /.                                                    ,.U                                   V u > l.l.> u V                                       ,.y                                                                                                                                                                                         5.[ 3                         ",
"                                                                      P ;                                                                                       m.[ =.  =.[ `                                   A n.  $ %   i [ o.                              }.k N o.[ (   p.[ l.                          }.[ W       e.[ 3                                                                                   S > 6.                                                K > S                                   ; H +     q.H ;                                       ,.y                                           r.u u s.                                                                                        W b Y t.                                      o % e.                        ",
"                                                                    0 [ / ;                                                                                     F [ n.  r [ [.                                u.k @.O 5 R i / Y                               s.t 9.  e.U v.(.d.@.V                           x w.% l Q {.-./ A                                                                                   ; > S                                                 S > ;                                     x.        (.                                        g l                                           + [ [ 2                                                                                         , [ [ $.                                    5.[ $                           ",
"                                                                    r.:.k L                                                                                     3.C     M p                                     K ' > [ [ [ 8 N                               8 ,       o.k [ k f.                              m.H [ [ [ w.z                                                                                       $ / y.                                            y./ !.                                                                                                                                        z.> [ A.                                                                                        B = > 9.                                    o k ).                          ",
"                                                                      N Q                                                                                                                                           ).1.R D                                   x x                                                 [.A @ ( B.                                                                                          ' w.C.                                        6.w.'                                                                                                                                           ^.[ C e.                                                                                          D C.                                    5.[ 2                             ",
"                                                                                                                                                                                                                      $ %                                                                                                                                                                                             & * w.D                                     j.w.' &                                                                                                                                           r [ M                                                                                                                                     5.;.).                            ",
"                                                                                                                                                                                                                      r 6                                                                                                                                                                                                 F                                         F                                                                                                                                               : t ).                                                                                                                                                                      ",
"                                                                                                                                                                                                                                                                                                                                                                                                                                                                                                                                                                                                                    W {.                                                                                                                                                                        ",
"                                                                                                                                                                                                                                                                                                                                                                                                                                                                                                                                                                                                                                                                                                                                                                                                ",
"                                                                                                                                                                                                                                                                                                                                                                                                                                                                                                                                                                                                                                                                                                                                                                                                ",
"                                                                                                                                                                                                                                                                                                                                                                                                                                                                                                                                                                                                                                                                                                                                                                                                ",
"                                                                                                                                                                                                                                                                                                                                                                                                                                                                                                                                                                                                                                                                                                                                                                                                ",
"                                                                                                                                                                                                                                                                                                                                                                                                                                                                                                                                                                                                                                                                                                                                                                                                ",
"                                                                                                                                                                                                                                                                                                                                                                                                                                                                                                                                                                                                                                                                                                                                                                                                ",
"                                                                                                                                                                                                                                                                                                                                                                                                                                                                                                                                                                                                                                                                                                                                                                                                ",
"                    < -.-.<                                         & + +.7.                                    V |.a.*.k.5.                                    n.2 6 e -.D.B.                                        D.B                                       4.+.+.+.+.+.+.j                                     l.S e +.<.V                                 a.+.+.+.+.+.+.,                                   r.8 +.o S s.                                    0 2 d.8 E.X                                                                                                                                                                                                                                                                                     F , *.o $._.                  ",
"                ).y c 1 6 > y ).                                  P >.[ [ 4                                   K I v F.$.b [ m                                 e.@.k 8 $.@.[ 1                                       '.c ~                                       @ [ 1 ~ ~ ~ ~ f                                   l [ u $.e ;.B.                                a.+.+.+.+.+.c y                                 0 C H  . .H h.#.                                r = p ' | = Y e.                                                                                                                                                                                                                                                                                2 [ b $.e / k C.                ",
"                 .[  .    k.[ 3                                 9 c I 3 [ 4                                   x.' s.      o c x                                 _ n.      -.[ _.                                    M / d                                       @ [ G                                           K > 1                                                     r./ b.                                G.c j.    j.c ~.                              ].:.@.].    7.[ b.                                                                                                                                          u.' E.                                                                                2 %.'.                                          ! ~ V     { [ ]                 ",
"                w h.[.  X p % +.                                p.m & 4.[ 4                                               + [ .                                           |.[ 7.                                  V R 8                                         @ [ G                                           ] = 6.                                                    : k V                                 +.u         w +.                              #.[ M         C *.                                      f.H.                                            f.H.                                              h R = 5                                                                                 2 = k r                                                   - [ a.                ",
"              & [ d.    I.* 1 /                                       4.[ 4                                               5 [ l.                                          k.> (.                                  O [ A                                         @ [ G                                           ,.T   V 4.X                                             '.c a                                   1 k N     d t a                               @ [ b.        u @.                                    9 [ [ O                                         9 [ [ O                                         D ~.[ +.`                                                                                     f ,.[ | D                                             V *.[ c.                ",
"              (.[ *   X R J.a.[ Q                                     4.[ 4                                               >.C                                       - @ <.v O                                     +.@.    >.:                                   @ [ 1 Y c Y z                                   v G.k.h.[ c 1 x                                         5 > C.                                  P n t * l p *.X                               H.[ D.        Y k                                     4 [ [ K.                                        4 [ [ K.                                       .h.k l                                       : [ [ [ [ [ [ ,                                       b.k h.m                                         x.w v  .                  ",
"              0 [ 2.  + -.  k.[ P                                     4.[ 4                                             B [ m                                       ~ [ [ $.-                                   4.[ m     ;.:                                   4.+.o 4 }.+.[ W                               [.[ k ~.A C.E.[ ,                                       e.C -.                                      }./ @.[ v <                                   u p `   x., c %                                     ].5 5 X                                         ].5 5 X                                     *.[ * Q                                         z.@ @ @ @ @ @ m.                                        ^.: [ y                                       /.:.0                     ",
"              C.[ S X C m.  i.[ N                                     4.[ 4                                           _.h.u &                                         ].J e k H.                                -.t x     % :                                             ^.= 1                               e.[ T         | c V                                     l [ 4.                                    m c |.  o.d.[ k.                                J.k / b = ] b /.                                                                                                                                C n P                                                                                                     - I k                                     f.[ 2                       ",
"              & / ' + ~.    i >                                       4.[ 4                                         f p H L                                               (.[ '                               C.= y @ @ @ v | @ '.                                          n w                                 c %.        k.[ D                                     b u                                     ^.h.1.        1 = d                                 x A @ =.(.= 2.                                                                                                                                A w.c L.e.                                      + +.+.+.+.+.+.D.                                      [.5 c p p.                                    4.+.A                       ",
"                R >.k o.    I p                                       4.[ 4                                       z.R p s.                                                  c |                               {.[ [ [ [ [ [ [ [ .                                           U I                                 I /.        &.[ ).                                  # [ b.                                    ! [ 4         7 [ z                                         ] [ m.                                                                                                                                  ].a./ % (                                     + +.+.+.+.+.+.D.                                    { @./ $.).                                                                  ",
"                %.[ *.    r.[ ,                                       4.[ 4                                     0 k R _.                                        K         ! [ E.                                          h.:                                   (.V       ; / %.                                1.> u.      Y b                                     *.k e.                                    5.[ ]         a [ _.                                    V g / k.                                      ).i.2.n.                                        P Y u r.                                          4.@.[ 1 6.                                                                                (.i [ U .                                           V 4.].                      ",
"                P :.y H.s.,.:.r.                                6.@ @ m [ 1.@ @                               '.H h.b.@ @ @ @ H.                              @ = M x u.< w.H (.                                          h.:                                 V I ,.5.u._ u h.m.                                - t | `   9 [ q.                                  H.[ a                                         +.> 2 j.0 ] / e                                   L 2.C c $                                         $ [ [ !.                                        D.[ [ 2                                             [.] = |                                                                                 F./ k.B.                                            2.[ *.                      ",
"                  t.n [ [ n l.                                  |.[ [ [ [ [ [ [                               t.[ [ [ [ [ [ [ D.                                }.n [ [ [ Y ;                                             v :                                   r >.= [ [ R 5.                                    z w.[ [ = S &                                   a = K                                         C.E t [ [ h.1 (.                                u.> R 2.P                                           g.c c .                                         l.= [ (                                                 m.H.                                                                                s.Z                                                 D.[ i                       ",
"                      P d                                                                                                                                           Q ! {                                                                                           ].G ! e.                                          _.@ r.                                        -                                               & =.m.                                        r e.                                                K (.                                          N [ w.V                                                                                                                                                                                           H.                        ",
"                                                                                                                                                                                                                                                                                                                                                                                                                                                                                                                                                                    s [ +                                                                                                                                                                                                                       ",
"                                                                                                                                                                                                                                                                                                                                                                                                                                                                                                                                                                    , h.).                                                                                                                                                                                                                      ",
"                                                                                                                                                                                                                                                                                                                                                                                                                                                                                                                                                                    ) o.                                                                                                                                                                                                                        ",
"                                                                                                                                                                                                                                                                                                                                                                                                                                                                                                                                                                                                                                                                                                                                                                                                ",
"                                                                                                                                                                                                                                                                                                                                                                                                                                                                                                                                                                                                                                                                                                                                                                                                ",
"                                                                                                                                                                                                                                                                                                                                                                                                                                                                                                                                                                                                                                                                                                                                                                                                ",
"                                                                                                                                                                                                                                                                                                                                                                                                                                                                                                                                                                                                                                                                                                                                                                                                ",
"                                                                                                                                                                                                                                                                                                                                                                                                                                                                                                                                                                                                                                                                                                                                                                                                ",
"                                                                                                                                                                                                                                                                                                                                                                                                                                                                                                                                                                                                                                                                                                                                                                                                ",
"                                                                                                                                                                                                                                                                                                                                                                                                                                                                                                                                                                                                                                                                                                                                                                                                ",
"                ).r 2.y | : z                                       ; +.+.;                                     $.+.+./.: b.n.                                      C.2 8 *., j                                 /.+.>.~.i.b.V                                   l.+.+.+.+.+.+.y                                   e +.+.+.+.+.+.s                                 e.m 1 e F.k.N                                 /.]         5 ,.                                5 +.+.+.+.+.+.]                                     a.+.+.+.+.5                                 D.+.[.      {.+.M                               [.+.D.                                        W +.+.x.    x.+.+.4.                              /.+.@       3 ,.                                  (.2 | | 2 (.                  ",
"              + c p ~.a.d.h.[ D.                                    3./ [ 3.                                    ,.> +.+.H / w.0                                   # c h.| $.+.[ q.                              > k +.+.n [ e x                                 . [ % +.+.+.+.6                                   c k +.+.+.+.+.J                               n.,.[ @.: 8 h.p ).                              > -.        1 /                                 5 +.+.c c +.+.]                                     a.+.+.+.[ 1                                 , [ e.    N R % ^.                              e.[ ,                                         F / [ h     M.[ [ r                               > [ o       ~ /                                 0 k w., , p k 0                 ",
"            ; t 2 V       e.1 [ #.                                  ,./.;.>.                                    ,.H       d c E                                 #.> e ].      _ u.                              > -.      l / E                                 . [ $                                             c -.                                          a.[ m       j.A                                 > -.        1 /                                       ;.b                                                   / 1                                 , [ e.  B.u v _.                                e.[ ,                                         b.v k 1.    ~ b [ l                               > @.[ ;     ~ /                                 /.p K     j.p /.                ",
"              (.            n.h.-.                                C./ + k./ C.                                  ,.H         @.n                                 Y h.6.                                          > -.        1 [ P                               . [ $                                             c -.                                        P / i                                             > -.        1 /                                       ;.b                                                   / 1                                 , [ e.  E / A                                   e.[ ,                                         !.h.E u     e : [ 3.                              > ^ / k.    ~ /                               W [ a         k.[ {.              ",
"                              8 :.                                 .[ ; ) [ ..                                  ,.H       [.k 8                               0 [ G.                                            > -.        r [ ..                              . [ $                                             c -.                                        I.[ #                                             > -.        1 /                                       ;.b                                                   / 1                                 , [ e.2 [ +                                     e.[ ,                                         M h...> B.V t r [ ]                               > M o R V   ~ /                               2 [ {         ( [ 2               ",
"                7 n = [ +.P   5 [ L                               y ;.    k T                                   ,.C @ @ p.*.n f.                              c.[ !.                                            > -.        z.[ a.                              . [ $                                             c -.                                        %.[ J.                                            > e @ @ @ @ y /                                       ;.b                                                   / 1                                 , [ z / -.                                      e.[ ,                                         2.v H.[ _ =./ x.[ S                               > k.F [ A.  ~ /                               : [ s.        0 [ '               ",
"              # [ ^ x.z [ G   3 [ 5.                            '.= ^     ' / '.                                ,.[ [ [ [ k  .V                               |.[ s                                             > -.        K [ 1                               . [ [ [ [ [ [ K                                   c [ [ N.[ [ ,                               8 [ x.    b [ [ [ 3                               > [ [ [ [ [ [ /                                       ;.b                                                   / 1                                 , [ 8 [ G                                       e.[ ,                                         ' R   C 5 m I   / *                               > 2.& w.*.  ~ /                               1 [ ).        ).[ 6               ",
"              | %     s.[ G   b.[ c.                            l [ {.    J [ 4                                 ,.H     C.b.h.o &                             z [ g                                             > -.        s.[ ,                               . [ $.@ @ @ @ B.                                  c b ~ ~ ~ ~ h                               * [ r.    4 ~ i [ 3                               > -.        1 /                                       ;.b                                                   / 1                                 , [ 6.p C C.                                    e.[ ,                                         -.U   -.*.1 :   v E                               > 2.  L.[ P ~ /                               * [ C.        K [ %.              ",
"              b -.    s.[ G   9 [ _                             | = ~ ~ ~ 2.[ d.                                ,.H         a [ #                             =.[ E.                                            > -.        _ [ ]                               . [ $                                             c -.                                        ] [ }         . [ 3                               > -.        1 /                                       ;.b                                                   / i                                 , [ [.y.= +.V                                   e.[ ,                                         o I   g t U O   H *.                              > 2.  j.= <.5 /                               k.[ m.        Z [ k.              ",
"              :.&.    s.[ G   b.[ 5.                          n.> % +.+.+.+.p > ).                              ,.H         < [ 3                             & p ,.                                            > -.        <.[ )                               . [ $                                             O.-.                                        l [ +         . [ 3                               > -.        1 /                                       ;.b                                                 d [ i.                                , [ e.  !.[ 1.                                  e.[ ,                                         ,.,.  L [ [ C.  ;.+.                              > 2.    ~.C I./                               h [ g         3 [ p.              ",
"              k '     s.[ G   g [ _.                          q [ G         < [ s                               ,.H         <.[ @                               I.[ F         [.'.                              > -.      f.:.~.                                . [ $                                             c -.                                        N :.;.&       . [ 3                               > -.        1 /                                       ;.b                                                 2 [ 4                                 , [ e.    | [ A.                                e.[ ,                                         I o     | ~.    /.n                               > 2.    J [ | /                               ^.h.Y e.    [.w % [.              ",
"              >.u     K.[ A   2 [ u.                          E k &         ).= 8                               ,.C @ @ F 1.c y &                               & y [ %.p.@ 3 Y 6                               > e @ p.2.h.% N                                 . [ $.@ @ @ @ @ ).                                c -.                                          |.= 8 t.u.A ~.[ 3                               > -.        1 /                                 l.@ @ % H @ @ t.                              e./.M L ^.g c @.u.                                , [ e.    x U c `                               e.[ I ~ ~ ~ ~ ~ t.                            % E             | w.                              > 2.      % c /                                 + [ o {.{.d.[ 9.                ",
"              F [ ] r R E q.  -.%                           X t %.            o c X                             ,.[ [ [ = T  .[.                                  [.S :.[ [ c ~.s.                              > [ [ [ % 2 X                                   . [ [ [ [ [ [ [ z.                                c -.                                            . n [ [ [ c ~ x                               > -.        1 /                                 1 [ [ [ [ [ [ -.                              & B >./ [ c E C.                                  , [ e.      z.c U x                             e.[ [ [ [ [ [ [ G                             k *             1 v                               > 2.      5 [ /                                   L.h.[ [ h.2                   ",
"                2 +.*._ G v ' = ]                                                                                                                                     V m.) [.                                                                                                                                                                                        x.# _ n.                                                                                                                                      ^.5.B.                                                                                                                                                                                                                                          [.{.{.[.                    ",
"                          D./.M e.                                                                                                                                                                                                                                                                                                                                                                                                                                                                                                                                                                                                                                                                                                                                                              ",
"                                                                                                                                                                                                                                                                                                                                                                                                                                                                                                                                                                                                                                                                                                                                                                                                ",
"                                                                                                                                                                                                                                                                                                                                                                                                                                                                                                                                                                                                                                                                                                                                                                                                ",
"                                                                                                                                                                                                                                                                                                                                                                                                                                                                                                                                                                                                                                                                                                                                                                                                ",
"                                                                                                                                                                                                                                                                                                                                                                                                                                                                                                                                                                                                                                                                                                                                                                                                ",
"                                                                                                                                                                                                                                                                                                                                                                                                                                                                                                                                                                                                                                                                                                                                                                                                ",
"                                                                                                                                                                                                                                                                                                                                                                                                                                                                                                                                                                                                                                                                                                                                                                                                ",
"                                                                                                                                                                                                                                                                                                                                                                                                                                                                                                                                                                                                                                                                                                                      + +                                                                       ",
"                                                                                                                                                                                                                                                                                                                                                                                                                                                                                                                                                                  f [ [ [ [ ]                                 o.: &                                               ] [ [ [ [ z.                                      z [ [ z                                                                     ",
"                                                                                                                                                                                                                                                                                                                                                                                                                                                                                                                                                                  f [ ~ @ @ 0                                 } [ <                                               0 @ @ ~ [ z.                                    ].w.o /.w.].                                                                  ",
"                F +.+.+.| i.W                                     (.M | | 2 (.                                  a +.+.>.F.k.;                                     r * *.*.P.b.&                               , +.+.+.+.+.+.Q.+.a.                            H.+.r         q +.H.                            o *             k.*.&                         j +.t.            C.+.7.                          j +.s         q +.g.                            F.|             , 8                               !.+.+.+.+.+.+.+.l.                                f [ s                                         o n &                                                   s [ z.                                    ~ = 0 ` = ~                                                                   ",
"                3 [ n +.b = [ $.                                f k w., , p k 0                                 E / +.+.C [ = g                                 + [ v E , +./ d.                              , +.+.+.c t +.+.+.L.                            {.[ $         + [ {.                            6 / Q         & v F.                          ! [ q     ! @ &   g.[ (                           [.% C n.    n.C u                               m [ 9         R.[ q.                              !.+.+.+.+.+.k [ y.                                f [ s                                         } [ F                                                   s [ z.                                  P > 1.    a.> P                                                                 ",
"                3 [ G     ).-.[ r                               +.H K     j.p /.                                E c       J.% / j.                            n.c ,.[.      c.#                                       @.u                                     {.[ $         + [ {.                            r [ 4         ! [ <                           r.[ M   ^.[ [ P   l [ j.                            ( [ a     ] / t.                              [.w.U V       u w.[.                                        D v y                                   f [ s                                           e +.                                                  s [ z.                                  y k x     '.:.y                                                                 ",
"                3 [ G       J.[ '                             } [ 5         a [ {.                              E c         2 [ 7.                            f [ 2.                                                  @.u                                     {.[ $         + [ {.                            X t |         $.c X                             > '   ( c [ z   k.h.                                6 c C.C.t '                                   s [ g     z [ 7                                           T h.D                                   f [ s                                           S.[ @                                                 s [ z.                                B.@ z.        m.@ B.                                                              ",
"                3 [ G       B.[ d.                            ] [ y.        { [ 2                               E c         + [ z                             n.v C f                                                 @.u                                     {.[ $         + [ {.                              E c X       p 8                               @.*.  ..I C 3.  6 Y                                 K t , * :.'.                                    I R [.  I @.                                          K.[ 3                                     f [ s                                             +.+.                                                s [ z.                                                                                                                  ",
"                3 [ G       } [ 1.                            %.[ K         - [ '                               E c       K I k ^.                              W k [ u 9 u.                                          @.u                                     {.[ $         + [ {.                              B [ F     {.[ q                               o @.  &.E ,.'   w 6                                   3./ / g                                       A [ m r [ 9.                                        D v ,.                                      f [ s                                             F [ @                                               s [ z.                                                                                                                  ",
"                3 [ G   & ! ;.:.s.                            8 [ V         B.[ 6                               E / +.+.+.t k g.                                  s.1 v [ c ] e.                                      @.u                                     {.[ $         + [ {.                              X c *     a c X                               &.c   y k.* e   k a                                   ` [ [ s.                                        e C b >.                                          T h.r.                                      f [ s                                             & ;.+.                                              s [ z.                                                                                                                  ",
"                3 [ [ [ [ [ H Z                               1 [ x         (.[ G.                              E = ~ * [ -.).                                          Z 8 [ /.&                                     @.u                                     {.[ $         + [ {.                                F.C     I 8                                 $ [ (.w.b.D.w.n.[ s                                   *.b p ~.                                        W [ [ .                                         l [  .                                        f [ s                                               < [ @                                             s [ z.                                                                                                                  ",
"                3 [ 3.@ @ 5.V                                 1.[ P         m.[ 2.                              E c     e C Q                                               * [ {                                     @.u                                     {.[ $         + [ {.                                q [ #.; [ O                                 z [ { [ ) 9.[ . [ {.                                z [ @ K.[ c.                                        b @.                                        D v ,.                                          f [ s                                               & ;.e                                             s [ z.                                                                                                                  ",
"                3 [ G                                         O [ 9         4 [ 9.                              E c     s.c E                                               7 [ B                                     @.u                                     J.[ ]         k.[ P                                 X c <.q.c ).                                f [ k.[ ].f [ ^ [ ].                              B.H e     ;.U [.                                      ;.b                                         T c r.                                          f [ s                                                 7 [ 5.                                          s [ z.                                                                                                                  ",
"                3 [ G                                         (.c u [.    [.u w.X                               E c       5 [ <                               X z           * [ =.                                    @.u                                     [.h.*.        /.:.V                                   8 n e 8                                     / Y p     > w p                                 ] / o.    ( [ M                                       ;.b                                       l [ m                                             f [ s                                                 e.% o                                           s [ z.                                                                                                                  ",
"                3 [ G                                           ] [ o {.{.o c A                                 E c       [.@.v C.                            D.[ 8 h x.u.2.[ ,.                                      @.u                                       5 [ k.@ @ 2.[ I.                                    q [ = O                                     % / /.    b / /.                              ; c 1         y t K                                     ;.b                                     (.h.H @ @ @ @ @ @ ).                                f [ s                                                   3 [ 5.                                        s [ z.                                                                                                                  ",
"                3 [ G                                             1.c [ [ [ %.;                                 E c         #.[ o                               m ;./ [ [ :.i N                                       @.u                                         2./ [ [ / a                                       ).c c ).                                    y [ ,     | [ ,                               E > D         f./ E                                     ;.b                                     4.[ [ [ [ [ [ [ [ '.                                f [ s                                                   e.k o                                         s [ z.                                                                                                                  ",
"                                                                    B.#.7 S = k 4.                                                                                  n.#.s.                                                                                          J.@ @ r.                                                                                                                                                                                                                                                                                      f [ ~ @ @ 0                                               2 [ 5.                                0 @ @ ~ [ z.                                                                                                                  ",
"                                                                            A / C e.                                                                                                                                                                                                                                                                                                                                                                                                                                                                              f [ [ [ [ ]                                               ).u G                                 ] [ [ [ [ z.                                                                                                                  ",
"                                                                              1 p t.                                                                                                                                                                                                                                                                                                                                                                                                                                                                              n.@ @ @ @ 0                                                                                     0 @ @ @ @ ).                                                                                , [ [ [ [ [ [ [ [ %.              ",
"                                                                              6.[.                                                                                                                                                                                                                                                                                                                                                                                                                                                                                                                                                                                                                                                                            4.O O O O O O O O 5.              ",
"                                                                                                                                                                                                                                                                                                                                                                                                                                                                                                                                                                                                                                                                                                                                                                                                ",
"                                                                                                                                                                                                                                                                                                                                                                                                                                                                                                                                                                                                                                                                                                                                                                                                ",
"                                                                                                                                                                                                                                                                                                                                                                                                                                                                                                                                                                                                                                                                                                                                                                                                ",
"                                                                                                                                                                                                                                                                                                                                                                                                                                                                                                                                                                                                                                                                                                                                                                                                ",
"                                                                                                                                                                                                                                                                                                                                                                                                                                                                                                                                                                                                                                                                                                                                                                                                ",
"                    ) (.                                                                                                                                                                                                                                                                                                                                                                                                                                              ^.'.                                              & ;                                                                                                                                                                                                                                                                     ",
"                  [.@.C F                                                                                       4 T.                                                                                                        G.g                                                                                       C.2.d.o E.l.                                                                              4 1                                                 ).R C '.                                            o > #.                                  r |                                           . ~ ~ ~ ~ Q                                                                                                                                                                       ",
"                    ! F.= -.[.                                                                                  8 C                                                                                                         p |                                                                                     e.n = *.* @.}.                                                                              8 C                                                 ).C k '.                                            *.> #.                                  : /                                           r +.+.H [ s.                                                                                                                                                                      ",
"                        C.q                                                                                     8 C                                                                                                         p |                                                                                     q [ U.                                                                                      8 C                                                                                                                                             : /                                                 2 [ s.                                                                                                                                                                      ",
"                                                                                                                8 C                                                                                                         p |                                                                                     E.[ 6.                                                  Q 2 A                               8 C                                                                                                                                             : /                                                 2 [ s.                                                                                                                                                                      ",
"                                                                l.a.+.>.1 g X                                   8 C s.: e $.j                                       F 2.y E D.^.                                  5.2.y ' {.p |                                   Q $ 1 y 1.(.                                      ] [ (.                                        r %.T U > [ [ ~                               8 C C.2.*.F.B                                   l.+.+.+.+.W                                       | +.+.+.+.<.                                  : /       n.8 T d                                   2 [ s.                                    D.k.O *.' u.$ V.*.).                              k.2.; 1.*.F.B                                     - M 8 *.S K                   ",
"                                                                7.I 2.1.~.t *.                                  8 t % F.: R [ l                                   $.[ @.: | t d.                                A = :.%.1 k > |                                 x @./ d.* k w.K                                 Y [ [ [ [ [ [ j                                 }.[ *.O ] w.a                                   8 v ;.2.O *.[ z                                 - ~ ~ 8 [ A                                       M ~ ~ ~ h.|                                   : /     X /.> !                                     2 [ s.                                    , C E g t b ' !./ l                               8 @.H 2.s >.[ z                                 0 :.h.-.i v C 0                 ",
"                                                                          + [ 0                                 8 [ 5.    P > w.                                =.[ '       ].C.                                w h.C.    ` h.|                                 2.[ J     C.:.$.                                } @ i [ |.@ @ ^.                                k I       }.[ !                                 8 [ z     & h.G.                                      < [ A                                               p |                                   : /   [.y / z                                       2 [ s.                                    , k V   ,.Y     w.a.                              8 [ b.    X > %.                                F./ -     L > -.                ",
"                                                                          F [ J                                 8 C         ~.[ -                               i.[ D                                         (.[ 1         p |                                 % u         : C                                     ] [ (.                                    B.[ $.      0 [ ]                                 8 C         H o                                       < [ A                                               p |                                   : / V 8 / <                                         2 [ s.                                    , %     e e     % ,                               8 C         p o                               [.c o         | t                 ",
"                                                                  R.<.8 >.@.[ z                                 8 C         ~ [ g.                              +.h.                                          } [ k.        p |                               V [ n ~ ~ ~ ~ e [ ].                                  ] [ (.                                      I ,.      @ W.B                                 8 C         H o                                       < [ A                                               p |                                   : X.a.[ ..                                          2 [ s.                                    , %     e e     % ,                               8 C         H o                               - [ '         $.[ N               ",
"                                                                2.[ -.$ p.E.[ z                                 8 C         M [ A                               ;.p                                           ( [ 2         p |                               n.[ C +.+.+.+.+.+.^.                                  ] [ (.                                      g.c e O 9.@.y &                                 8 C         H o                                       < [ A                                               p |                                   : / 5.c w X                                         2 [ s.                                    , %     e e     % ,                               8 C         H o                               0 [ 1.        2.[ f               ",
"                                                              6.[ 1       F [ z                                 8 C         a.[ Z                               y / V                                         Z [ 2.        p |                                 t d.                                                ] [ (.                                      B.,.d.+.8 !.&                                   8 C         H o                                       < [ A                                               p |                                   : /   J / *.[.                                      2 [ s.                                    , %     e e     % ,                               8 C         H o                               e./ i         i [ u.              ",
"                                                              5.[ 2.      < [ z                                 8 :.&     & @.C &                               ..[ 7                                         & :.w       Q h.|                                 6 :.'.                                              ] [ (.                                      ..[ ).                                          8 C         H o                                       < [ A                                               p |                                   : /     9 [ 8                                       3.[ `                                     , %     e e     % ,                               8 C         H o                                 *.p e.    e.p +.                ",
"                                                              x c R z V A % [ 3                                 8 [ * n.d i [ !.                                [.w c 4 '.(.%.%.                                a [ <.(.J ;.> |                                 s.h.+.( [.y.n q                                     ] [ (.                                      7.[ % +.+.G.A.                                  8 C         H o                                 C.@ @ Y.[ I.@ A                                           C 8                                   : /       + [ :                                     } [ k.V { W                               , %     e e     % ,                               8 C         H o                                 g./ 6 - 0 6 / _                 ",
"                                                                s :.[ [ :.Z ' k                                 8 +.6 [ [ c E.                                    ^.i = [ [ :.b.                                V ' / [ R M ,.|                                   Z +.[ [ [ w l.                                    ] [ (.                                        j 8 +.u R [ /.].                              8 C         H o                                 F [ [ [ [ [ [ c                                         X / &.                                  : /         a.[ L.                                    <./ [ [ *                               , %     e e     % ,                               8 C         H o                                   A @.[ [ w.h                   ",
"                                                                  e.y.# ^.    D                                       ; . n.                                          ].{ ( X                                       ^.5.&                                             j.! y.                                                                                                ..[ B                                                                                                                                       m [ z                                                                                           ^.R.'.                                                                                                                                        P t.&                     ",
"                                                                                                                                                                                                                                                                                                                                                              # [ o.        r [ F                                                                                                                                   [. .> *.                                                                                                                                                                                                                                                                    ",
"                                                                                                                                                                                                                                                                                                                                                              n.@.@.g @  .* h.n ).                                                                                                                              _ <.p [ * ).                                                                                                                                                                                                                                                                    ",
"                                                                                                                                                                                                                                                                                                                                                                '.<.u c k w ^ K                                                                                                                                 : /.2 -                                                                                                                                                                                                                                                                         ",
"                                                                                                                                                                                                                                                                                                                                                                                                                                                                                                                                                                                                                                                                                                                                                                                                ",
"                                                                                                                                                                                                                                                                                                                                                                                                                                                                                                                                                                                                                                                                                                                                                                                                ",
"                                                                                                                                                                                                                                                                                                                                                                                                                                                                                                                                                                                                                                                                                                                                                                                                ",
"                                                                                                                                                                                                                                                                                                                                                                                                                                                                                                                                                                                                                                                                                                                                                                                                ",
"                                                                                                                                                                                                                                                                                                                                                                                                                                                                                                                                                                          D t.                                                                                    t.D                                                                                                                           ",
"                                                                                                                                                                                                                                                                                                                                                                                                                                                                                                                                                                      9.R [ Y                                         2.2.                                        Y [ R j                                                                                                                       ",
"                                                                                                                                                                                                                                                                                                                                                                                                                                                                                                                                                                      % Y K                                           o o                                           K Y %                                                                                                                       ",
"                                                                                                                                                                                                                                                                                                                                                                                                                                                                                                                                                                      :.~                                             o o                                             ~ v                                                                                                                       ",
"                                                                                                                                                                                                                    | d.                                                                                                                                                                                                                                                                                                                                              @.G.                                            o o                                             %.%                                                                                                                       ",
"                                                                                                                                                                                                                    @.e                                                                                                                                                                                                                                                                                                                                               /.*.                                            o o                                             *.,.                                                                                                                      ",
"                k.2.m.$.e ' z                                     ) 2.y %.4.<.<.                                + +.+.r.; M d.+.l.                                . ^ 8 *., }.e.                              ).+.+.c h.+.+.+.V                                 k.|         8 <.                              5.+.9.        ! +.#.                          6.+.b.            j +.D                             i T x     B.d.%.                              y.+.|.        @ +.y.                              l.+.+.+.+.+.+.M                                       6 n                                             o o                                             I 6                                                                                                                       ",
"                8 U w.E : C [ r                                 } > h.* -.p C |                                 F i.[ r w.U | [ m.                              ! / @.%.: /./ b.                              X ~ ~ :.H ~ ~ 5                                   8 C         p |                               [.h.|         1 h.B.                            c ,     2 ~ X   k.c                               { [ 1.    E./ y.                              [.h.o         1 h.[.                              l.+.+.+.+.U [ ~                                       i %                                             o o                                             @.6                                                                                                                       ",
"                8 [ 5.    ` / Y                                 *.[ y.    ` h.|                                   (.[ @.%.V @ [ 6.                              i.[ 6.      ;                                       @.e                                         8 C         p |                                 * c ).    [.t %.                              u e   )./ [ 5.  Z.;.                                : = _.P c k.                                  %.= ).    [.t %.                                        ].b @.n.                                  V 7.:.i                                             o o                                             * c !                                       P #.e.                                                                        ",
"                8 C         T / e.                            B.> ,.        p |                                   (.[ v ].  f ~ [.                              E.[ $.D                                             @.e                                         8 C         p |                                 ( [ l     F [ A                               * H   A c %  .  w -.                                ).p ,.d.;.V                                   @ [ b.    z [ !                                         i > m.                                  7 [ [ w u.                                            o o                                             X o [ [ 4                                 G.[ [ :.O   B.,.m                                                               ",
"                8 C         $.[ r.                            s.[ '         p |                                   (.[ *                                         6.;.[ / u D.[.                                      @.e                                         8 C         p |                                   R o     1 C                                 $ / [.2 w | ,   k M                                   A [ [ f.                                    & k ~.    * k &                                       4 [ ..                                    L g a.c 1                                             o o                                             %.[ -.$ ;                                .> g r.~./ : U :.s.                                                              ",
"                8 C         <.[ H.                            _.[ 2.        p |                                   (.[ ^                                             {.5 ,.[ +.^.                                    @.e                                         8 C         p |                                   2.= '.[.t 2.                                ( [ ` 8 , k.w ].[ 9.                                  z c [ 2                                       $.c X & k &.                                      Z > d.                                            i %                                             o o                                             % 8                                     r.J     [.D.>.y y.                                                                ",
"                8 C         %.[ '.                            K [ *         p |                                   (.[ ^                                                   F [ ^                                     @.e                                         8 C         p |                                   _.[ g F [ _.                                u.[ 7.H ..B c } [ -                                 N k a , = `                                     { [ < ( [ #.                                    ^.H p '.                                            i ;.                                            o o                                             I i                                                                                                                       ",
"                8 :.&     `.H n                                 R @.      Q h.|                                   (.[ ^                                                   V [ 8                                     Y >.                                        1 :.      x.h.|                                     I y 1 I                                     w.] [ 5.H.[ ^ c                                   y % e.^.k I V                                     R 6 $.H                                       *./ 4.                                              y *.                                            o o                                             *.T                                                                                                                       ",
"                8 [ o c.D i [ b.                                5 [ i.C.7.;.= |                                 z.|.[ 1 @ s.                                  [.d.L.- e._ i [  .                                    : = 4 N { c.                                D.[ D.C.q U > |                                     2 = h.I.                                    o b / B.  c @.+.                                q.[ G     b.[ ]                                     2.h.p ~                                     $ [ 8 @ @ @ @ l.                                      n G.                                            o o                                             %.b                                                                                                                       ",
"                8 C + v [ c M                                   V : / [ [ L.p |                                 : [ [ [ [ 2                                   V D.u / [ [ c 2                                       x./.[ [ [ ~.                                u.u [ [ U 5 o |                                     D [ / D                                     2.[ b     w [ *                               f.> %.        >.= Z                                   {.[ [ `                                     -.[ [ [ [ [ [ 2.                                      k ~                                             o o                                             ~ :.                                                                                                                      ",
"                8 C   [.5.n.                                        '.A _.  p |                                                                                     n.g.A u.                                            C.A P                                       J.z.                                                                                                                                                                                              d.I                                                                                             C 8                                             o o                                             8 C                                                                                                                       ",
"                8 C                                                         p |                                                                                                                                                                                                                                                                                                                                                                                     F [ 9.                                                                                            F h.@.*                                         o o                                         * @.h.7.                                                                                                                      ",
"                8 C                                                         p |                                                                                                                                                                                                                                                                                                                                                                                 {.: c k.                                                                                                D I.m                                                                                     m I.j.                                                                                                                        ",
"                -./.                                                        e E                                                                                                                                                                                                                                                                                                                                                                                 3.n  .                                                                                                                                                                                                                                                                                                                          ",
"                                                                                                                                                                                                                                                                                                                                                                                                                                                                                                                                                                                                                                                                                                                                                                                                ",
"                                                                                                                                                                                                                                                                                                                                                                                                                                                                                                                                                                                                                                                                                                                                                                                                "};
